X:107
T:Reels simple chords 222
M:3/4
L:1/8
K:A
ed [c2A,2C2E2] A2 | Ac BA [G2E,2G,2B,2] | E2 E2>E2 | [^D2B,2D2F2A2] B2 Bc | BA [G2E,2G,2B,2D2] E2 |
E2 ed [c2A,2C2E2] | A2 Ac BA | [GB,DF]A Bc de | fg [aA,CE]e ce |
Bf ed [c2A,2C2E2] | A2 A2 ed | [c2A,2C2E2] A2 Ac | BA [G2E,2G,2B,2] E2 |
E2>E2 [^D2B,2D2F2A2] | B2 Bc BA | [G2E,2G,2B,2D2] E2 E2 | ed [c2A,2C2E2] A2 |
Ac BA [GB,DF]A | Bc de fg | [aA,CE]e ce Bf | ed [c2A,2C2E2] A2 |
A2 ce [fA,CE]e | ce ag fe | [f2A,2C2E2] e2 e2 | ce [fA,CE]e ce |
ag fe [d2E,2G,2B,2D2] | B2 B2 e2 | [fA,CE]e ce ag | fe [fD,F,A,]e fg |
ag fe [dA,CE]c | BA GB ed | [c2A,2C2E2] A2 A2 | ce [fA,CE]e ce |
ag fe [f2A,2C2E2] | e2 e2 ce | [fA,CE]e ce ag | fe [d2E,2G,2B,2D2] B2 |
B2 e2 [fA,CE]e | ce ag fe | [fD,F,A,]e fg ag | fe [dA,CE]c BA |
GB ed [c2A,2C2E2] | A2 A2 |


